!!!COM: Bach, Johann Sebastian
!!!CDT: 1685/02/21/-1750/07/28/
!!!OTL@@DE: Ich hab mein Sach Gott heimgestellt
!!!SCT: BWV 351
!!!PC#: 19
!!!AGN: chorale
**harm	**kern	**kern	**kern	**kern
*	*ICvox	*ICvox	*ICvox	*ICvox
*	*Ibass	*Itenor	*Ialto	*Isoprn
*	*I"Bass	*I"Tenor	*I"Alto	*I"Soprano
*	*	*oclefC4	*oclefC3	*oclefC1
*	*clefF4	*clefGv2	*clefG2	*clefG2
*k[b-]	*k[b-]	*k[b-]	*k[b-]	*k[b-]
*g:dor	*g:dor	*g:dor	*g:dor	*g:dor
*M4/4	*M4/4	*M4/4	*M4/4	*M4/4
*met(c)	*met(c)	*met(c)	*met(c)	*met(c)
*MM100	*MM100	*MM100	*MM100	*MM100
i	4G	4B-	4d	4g
=1	=1	=1	=1	=1
i	4G	4B-	4d	4g
It6	4E-	4G	4c#	4g
V	8DL	8AL	8dL	8f#L
V2	8CnXJ	8AJ	8dJ	8f#J
i6	4BB-	4d	4g	4b-
=2	=2	=2	=2	=2
iio6	4C	4c	4e-	4a
viio7/V	4C#	4B-L	4e	4g
V;	4D;	4A;	4d;	4f#;
V	4D	4A	4d	4f#
=3	=3	=3	=3	=3
V7	4D	4A	4c	4f#
V2	4CnX	4A	4d	4f#
V6/IV	4BB	4G	4d	4g
IV	4C	4G	4c	4e
=4	=4	=4	=4	=4
viio65	4AA	4c	4e-	4f#
V7	4D	4c	4d	4f#
i;	4GG;	4B-;	4d;	4g;
B-:V	4F	4c	4f	4a
=5	=5	=5	=5	=5
V	4F	4c	4f	4a
V6/V	4EnX	4c	4g	4cc
V2	4E-J	4cJ	4fJ	4aJ
I6	4D	4B-	4f	4f
=6	=6	=6	=6	=6
IV	8E-L	8B-L	8e-L	8gL
vii%7/V	8EJ	8B-J	8dJ	8gJ
V	8FL	8AL	8cL	8aL
viio7/vi	8F#J	8cJ	8e-XJ	8aJ
vi;	4G;	4B-;	4d;	4b-;
g:i	4GG	4d	4g	4b-
=7	=7	=7	=7	=7
V	4D	4d	4f#	4a
VI7	8E-	8d	8g	8g
iv6	8E-	8c	8g	8g
V;	4D;	4A;	4d;	4f#;
V	4D	4A	4d	4f#
=8	=8	=8	=8	=8
viio6	4AA	4A	4c	4f#
viio43	8CL	8AL	8e-L	8f#L
V2	8CJ	8AJ	8dJ	8f#J
i6	8BB-L	8GL	8dL	8gL
V6/iv	8BBnXJ	8GJ	8dJ	8gJ
IV	8CL	8GL	8eL	8eL
viio7/V	8C#J	8B-J	8eJ	8eJ
=9	=9	=9	=9	=9
V	4D	4A	4d	4f#
V7	4DD	4cnX	4d	4f#
I;	4GG;	4B;	4d;	4g;
==	==	==	==	==
*-	*-	*-	*-	*-
!!!YOR1: 371 vierstimmige Choralges&auml;nge von Johann Sebastian Bach, 
!!!YOR2: 4th ed. by Alfred D&ouml;rffel (Leipzig: Breitkopf und H&auml;rtel, 
!!!YOR2: c.1875). 178 pp. Plate "V.A.10".  reprint: J.S. Bach, 371 Four-Part 
!!!YOR4: Chorales (New York: Associated Music Publishers, Inc., c.1940).
!!!SMS: B&H, 4th ed, Alfred D&ouml;rffel, c.1875, plate V.A.10
!!!EED:  Craig Stuart Sapp
!!!EEV:  2009/05/22
